public/images/join/lines.svg

<svg fill="none" height="700" viewBox="0 0 1744 700" width="1744" xmlns="http://www.w3.org/2000/svg"><path d="m1281.99-18.3688.01.0055v.0056l154.35 171.0907c36.52 40.48 48.56 97.421 31.55 149.218l-71.89 218.927v.007.007l-70.99 219.219c-16.8 51.867-60.09 90.764-113.46 101.932l-225.538 47.204-.007.001-.007.002-225.346 48.128c-53.317 11.387-108.648-6.657-145.002-47.286l-153.65-171.723-.005-.005-.005-.006-154.353-171.091c-36.52-40.48-48.559-97.42-31.55-149.218l71.891-218.926.002-.007.003-.007 70.992-219.2197c16.797-51.8672 60.089-90.7633 113.452-101.9313l225.541-47.204.008-.002.007-.001 225.346-48.129c53.321-11.387 108.651 6.657 145.001 47.287z" opacity=".04" stroke="#007bff" stroke-width="7.28036"/><path d="m1457.3-175.874.01.005 244.9 271.4576c36.96 40.9644 49.14 98.5874 31.93 151.0054l-114.07 347.355v.007l-112.64 347.819c-17 52.488-60.81 91.855-114.81 103.155l-357.85 74.89h-.01l-357.537 76.37c-53.955 11.52-109.949-6.74-146.738-47.86l-243.786-272.456-.005-.006-244.9013-271.458c-36.9573-40.964-49.14057-98.587-31.92752-151.005l114.06382-347.355.003-.007 112.638-347.819c16.998-52.488 60.809-91.851 114.811-103.153l357.85-74.894.007-.002 357.542-76.362c53.95-11.523 109.95 6.737 146.74 47.853z" opacity=".04" stroke="#007bff" stroke-width="3.64018"/><path d="m124.03 106.757 111.589-347.606c17.133-53.372 61.646-93.405 116.529-104.802l358.428-74.432" opacity=".2" stroke="#007bff" stroke-width="3.64018"/><g fill="#151515" stroke="#17171a"><circle cx="279.951" cy="449.076" r="136.344" stroke-width="6.992"/><circle cx="385.395" cy="39.193" r="87.3643" stroke-width="7.28036"/><circle cx="1331.45" cy="691.961" r="90.7566" stroke-width="6.66104"/><circle cx="1477.05" cy="164.312" r="147.066" stroke-width="6.72304"/></g><path d="m1480.37 311.423c-83.08 0-150.43-67.349-150.43-150.428" opacity=".2" stroke="#007bff" stroke-width="6.72304"/></svg>

<svg width="1744" height="700" viewBox="0 0 1744 700" fill="none" xmlns="http://www.w3.org/2000/svg">
<path opacity="0.04" d="M1281.99 -18.3688L1282 -18.3633L1282 -18.3577L1436.35 152.733C1472.87 193.213 1484.91 250.154 1467.9 301.951L1396.01 520.878L1396.01 520.885L1396.01 520.892L1325.02 740.111C1308.22 791.978 1264.93 830.875 1211.56 842.043L986.022 889.247L986.015 889.248L986.008 889.25L760.662 937.378C707.345 948.765 652.014 930.721 615.66 890.092L462.01 718.369L462.005 718.364L462 718.358L307.647 547.267C271.127 506.787 259.088 449.847 276.097 398.049L347.988 179.123L347.99 179.116L347.993 179.109L418.985 -40.1107C435.782 -91.9779 479.074 -130.874 532.437 -142.042L757.978 -189.246L757.986 -189.248L757.993 -189.249L983.339 -237.378C1036.66 -248.765 1091.99 -230.721 1128.34 -190.091L1281.99 -18.3688Z" stroke="#007BFF" stroke-width="7.28036"/>
<path opacity="0.04" d="M1457.3 -175.874L1457.31 -175.869L1702.21 95.5886C1739.17 136.553 1751.35 194.176 1734.14 246.594L1620.07 593.949L1620.07 593.956L1507.43 941.775C1490.43 994.263 1446.62 1033.63 1392.62 1044.93L1034.77 1119.82L1034.76 1119.82L677.223 1196.19C623.268 1207.71 567.274 1189.45 530.485 1148.33L286.699 875.874L286.694 875.868L41.7927 604.41C4.8354 563.446 -7.34787 505.823 9.86518 453.405L123.929 106.05L123.932 106.043L236.57 -241.776C253.568 -294.264 297.379 -333.627 351.381 -344.929L709.231 -419.823L709.238 -419.825L1066.78 -496.187C1120.73 -507.71 1176.73 -489.45 1213.52 -448.334L1457.3 -175.874Z" stroke="#007BFF" stroke-width="3.64018"/>
<path opacity="0.2" d="M124.03 106.757L235.619 -240.849C252.752 -294.221 297.265 -334.254 352.148 -345.651L710.576 -420.083" stroke="#007BFF" stroke-width="3.64018"/>
<circle cx="279.951" cy="449.076" r="136.344" fill="#151515" stroke="#17171A" stroke-width="6.992"/>
<circle cx="385.395" cy="39.193" r="87.3643" fill="#151515" stroke="#17171A" stroke-width="7.28036"/>
<circle cx="1331.45" cy="691.961" r="90.7566" fill="#151515" stroke="#17171A" stroke-width="6.66104"/>
<circle cx="1477.05" cy="164.312" r="147.066" fill="#151515" stroke="#17171A" stroke-width="6.72304"/>
<path opacity="0.2" d="M1480.37 311.423C1397.29 311.423 1329.94 244.074 1329.94 160.995" stroke="#007BFF" stroke-width="6.72304"/>
</svg>
